static/img/device/component-diode4.svg

<svg width="130" height="76" viewBox="0 0 130 76" fill="none" xmlns="http://www.w3.org/2000/svg">
<g clip-path="url(#clip0_74_360)">
<path d="M130 5.68058H0V10.5078H130V5.68058Z" fill="white"/>
<path d="M130 25.6263H0V30.4535H130V25.6263Z" fill="white"/>
<path d="M130 45.5465H0V50.3737H130V45.5465Z" fill="white"/>
<path d="M130 65.4667H0V70.2939H130V65.4667Z" fill="white"/>
<mask id="mask0_74_360" style="mask-type:luminance" maskUnits="userSpaceOnUse" x="49" y="0" width="31" height="16">
<path d="M50.5201 0.318419C50.0088 0.318419 49.5999 3.80828 49.5999 8.11329C49.5999 12.4183 50.0088 15.9082 50.5201 15.9082H78.8026C79.3138 15.9082 79.7228 12.4183 79.7228 8.11329C79.7228 3.80828 79.3138 0.318419 78.8026 0.318419H50.5201Z" fill="white"/>
</mask>
<g mask="url(#mask0_74_360)">
<path d="M79.7355 0.318419H49.5999V15.9209H79.7355V0.318419Z" fill="white"/>
</g>
<path d="M78.8154 0.318419H50.5328C50.0216 0.318419 49.6127 3.80828 49.6127 8.11329C49.6127 12.4183 50.0216 15.9082 50.5328 15.9082H78.8154C79.3266 15.9082 79.7356 12.4183 79.7356 8.11329C79.7356 3.80828 79.3266 0.318419 78.8154 0.318419Z" stroke="#231815" stroke-width="0.5" stroke-miterlimit="10"/>
<path d="M53.0761 0.318419C52.5649 0.318419 52.1559 3.80828 52.1559 8.11329C52.1559 12.4183 52.5649 15.9082 53.0761 15.9082H55.3765C54.8653 15.9082 54.4563 12.4183 54.4563 8.11329C54.4563 3.80828 54.8653 0.318419 55.3765 0.318419H53.0761Z" stroke="#231815" stroke-width="0.3" stroke-linecap="round" stroke-linejoin="round"/>
<path d="M0 10.5078H49.651C49.766 13.641 50.1239 15.9082 50.5328 15.9082H78.8282C79.2371 15.9082 79.5822 13.641 79.71 10.5078H130.026M130 5.68058H79.6844C79.5566 2.57282 79.2116 0.318419 78.8154 0.318419H50.5201C50.1111 0.318419 49.766 2.57282 49.651 5.68058H0" stroke="#231815" stroke-width="0.5" stroke-miterlimit="10"/>
<mask id="mask1_74_360" style="mask-type:luminance" maskUnits="userSpaceOnUse" x="49" y="20" width="31" height="16">
<path d="M50.5201 20.2386C50.0088 20.2386 49.5999 23.7285 49.5999 28.0335C49.5999 32.3385 50.0088 35.8284 50.5201 35.8284H78.8026C79.3138 35.8284 79.7228 32.3385 79.7228 28.0335C79.7228 23.7285 79.3138 20.2386 78.8026 20.2386H50.5201Z" fill="white"/>
</mask>
<g mask="url(#mask1_74_360)">
<path d="M79.7355 20.2386H49.5999V35.8411H79.7355V20.2386Z" fill="white"/>
</g>
<path d="M78.8154 20.2386H50.5328C50.0216 20.2386 49.6127 23.7285 49.6127 28.0335C49.6127 32.3385 50.0216 35.8284 50.5328 35.8284H78.8154C79.3266 35.8284 79.7356 32.3385 79.7356 28.0335C79.7356 23.7285 79.3266 20.2386 78.8154 20.2386Z" stroke="#231815" stroke-width="0.5" stroke-miterlimit="10"/>
<path d="M53.0761 20.2386C52.5649 20.2386 52.1559 23.7285 52.1559 28.0335C52.1559 32.3385 52.5649 35.8284 53.0761 35.8284H55.3765C54.8653 35.8284 54.4563 32.3385 54.4563 28.0335C54.4563 23.7285 54.8653 20.2386 55.3765 20.2386H53.0761Z" stroke="#231815" stroke-width="0.3" stroke-linecap="round" stroke-linejoin="round"/>
<path d="M0 30.4408H49.651C49.766 33.574 50.1239 35.8411 50.5328 35.8411H78.8282C79.2371 35.8411 79.5822 33.574 79.71 30.4408H130.026M130 25.6008H79.6844C79.5566 22.493 79.2116 20.2386 78.8154 20.2386H50.5201C50.1111 20.2386 49.766 22.493 49.651 25.6008H0" stroke="#231815" stroke-width="0.5" stroke-miterlimit="10"/>
<mask id="mask2_74_360" style="mask-type:luminance" maskUnits="userSpaceOnUse" x="49" y="40" width="31" height="16">
<path d="M50.5201 40.1589C50.0088 40.1589 49.5999 43.6487 49.5999 47.9537C49.5999 52.2588 50.0088 55.7486 50.5201 55.7486H78.8026C79.3138 55.7486 79.7228 52.2588 79.7228 47.9537C79.7228 43.6487 79.3138 40.1589 78.8026 40.1589H50.5201Z" fill="white"/>
</mask>
<g mask="url(#mask2_74_360)">
<path d="M79.7355 40.1589H49.5999V55.7614H79.7355V40.1589Z" fill="white"/>
</g>
<path d="M78.8154 40.1589H50.5328C50.0216 40.1589 49.6127 43.6487 49.6127 47.9537C49.6127 52.2588 50.0216 55.7486 50.5328 55.7486H78.8154C79.3266 55.7486 79.7356 52.2588 79.7356 47.9537C79.7356 43.6487 79.3266 40.1589 78.8154 40.1589Z" stroke="#231815" stroke-width="0.5" stroke-miterlimit="10"/>
<path d="M53.0761 40.1589C52.5649 40.1589 52.1559 43.6487 52.1559 47.9537C52.1559 52.2588 52.5649 55.7486 53.0761 55.7486H55.3765C54.8653 55.7486 54.4563 52.2588 54.4563 47.9537C54.4563 43.6487 54.8653 40.1589 55.3765 40.1589H53.0761Z" stroke="#231815" stroke-width="0.3" stroke-linecap="round" stroke-linejoin="round"/>
<path d="M0 50.361H49.651C49.766 53.4942 50.1239 55.7614 50.5328 55.7614H78.8282C79.2371 55.7614 79.5822 53.4942 79.71 50.361H130.026M130 45.521H79.6844C79.5566 42.4133 79.2116 40.1589 78.8154 40.1589H50.5201C50.1111 40.1589 49.766 42.4133 49.651 45.521H0" stroke="#231815" stroke-width="0.5" stroke-miterlimit="10"/>
<mask id="mask3_74_360" style="mask-type:luminance" maskUnits="userSpaceOnUse" x="49" y="60" width="31" height="16">
<path d="M50.5201 60.0791C50.0088 60.0791 49.5999 63.569 49.5999 67.874C49.5999 72.179 50.0088 75.6688 50.5201 75.6688H78.8026C79.3138 75.6688 79.7228 72.179 79.7228 67.874C79.7228 63.569 79.3138 60.0791 78.8026 60.0791H50.5201Z" fill="white"/>
</mask>
<g mask="url(#mask3_74_360)">
<path d="M79.7355 60.0791H49.5999V75.6816H79.7355V60.0791Z" fill="white"/>
</g>
<path d="M78.8154 60.0791H50.5328C50.0216 60.0791 49.6127 63.569 49.6127 67.874C49.6127 72.179 50.0216 75.6688 50.5328 75.6688H78.8154C79.3266 75.6688 79.7356 72.179 79.7356 67.874C79.7356 63.569 79.3266 60.0791 78.8154 60.0791Z" stroke="#231815" stroke-width="0.5" stroke-miterlimit="10"/>
<path d="M53.0761 60.0791C52.5649 60.0791 52.1559 63.569 52.1559 67.874C52.1559 72.179 52.5649 75.6688 53.0761 75.6688H55.3765C54.8653 75.6688 54.4563 72.179 54.4563 67.874C54.4563 63.569 54.8653 60.0791 55.3765 60.0791H53.0761Z" stroke="#231815" stroke-width="0.3" stroke-linecap="round" stroke-linejoin="round"/>
<path d="M0 70.2812H49.651C49.766 73.4144 50.1239 75.6816 50.5328 75.6816H78.8282C79.2371 75.6816 79.5822 73.4144 79.71 70.2812H130.026M130 65.4413H79.6844C79.5566 62.3335 79.2116 60.0791 78.8154 60.0791H50.5201C50.1111 60.0791 49.766 62.3335 49.651 65.4413H0" stroke="#231815" stroke-width="0.5" stroke-miterlimit="10"/>
</g>
<defs>
<clipPath id="clip0_74_360">
<rect width="130" height="76" fill="white"/>
</clipPath>
</defs>
</svg>

<svg xmlns="http://www.w3.org/2000/svg" width="130" height="76" fill="none" viewBox="0 0 130 76"><g clip-path="url(#a)"><path fill="#fff" d="M130 5.68H0v4.828h130zM130 25.626H0v4.827h130zM130 45.547H0v4.827h130zM130 65.467H0v4.827h130z"/><mask id="b" width="31" height="16" x="49" y="0" maskUnits="userSpaceOnUse" style="mask-type:luminance"><path fill="#fff" d="M50.52.318c-.511 0-.92 3.49-.92 7.795s.409 7.795.92 7.795h28.283c.51 0 .92-3.49.92-7.795s-.41-7.795-.92-7.795z"/></mask><g mask="url(#b)"><path fill="#fff" d="M79.736.318H49.6v15.603h30.136z"/></g><path stroke="#231815" stroke-miterlimit="10" stroke-width=".5" d="M78.815.318H50.533c-.511 0-.92 3.49-.92 7.795s.409 7.795.92 7.795h28.282c.512 0 .92-3.49.92-7.795s-.408-7.795-.92-7.795Z"/><path stroke="#231815" stroke-linecap="round" stroke-linejoin="round" stroke-width=".3" d="M53.076.318c-.511 0-.92 3.49-.92 7.795s.409 7.795.92 7.795h2.3c-.51 0-.92-3.49-.92-7.795s.41-7.795.92-7.795z"/><path stroke="#231815" stroke-miterlimit="10" stroke-width=".5" d="M0 10.508h49.651c.115 3.133.473 5.4.882 5.4h28.295c.41 0 .754-2.267.882-5.4h50.316M130 5.68H79.684c-.127-3.108-.472-5.363-.869-5.363H50.52c-.409 0-.754 2.255-.869 5.363H0"/><mask id="c" width="31" height="16" x="49" y="20" maskUnits="userSpaceOnUse" style="mask-type:luminance"><path fill="#fff" d="M50.52 20.239c-.511 0-.92 3.49-.92 7.794 0 4.306.409 7.795.92 7.795h28.283c.51 0 .92-3.49.92-7.795s-.41-7.794-.92-7.794z"/></mask><g mask="url(#c)"><path fill="#fff" d="M79.736 20.239H49.6V35.84h30.136z"/></g><path stroke="#231815" stroke-miterlimit="10" stroke-width=".5" d="M78.815 20.239H50.533c-.511 0-.92 3.49-.92 7.794 0 4.306.409 7.795.92 7.795h28.282c.512 0 .92-3.49.92-7.795s-.408-7.794-.92-7.794Z"/><path stroke="#231815" stroke-linecap="round" stroke-linejoin="round" stroke-width=".3" d="M53.076 20.239c-.511 0-.92 3.49-.92 7.794 0 4.306.409 7.795.92 7.795h2.3c-.51 0-.92-3.49-.92-7.795s.41-7.794.92-7.794z"/><path stroke="#231815" stroke-miterlimit="10" stroke-width=".5" d="M0 30.44h49.651c.115 3.134.473 5.401.882 5.401h28.295c.41 0 .754-2.267.882-5.4h50.316M130 25.6H79.684c-.127-3.108-.472-5.362-.869-5.362H50.52c-.409 0-.754 2.254-.869 5.362H0"/><mask id="d" width="31" height="16" x="49" y="40" maskUnits="userSpaceOnUse" style="mask-type:luminance"><path fill="#fff" d="M50.52 40.159c-.511 0-.92 3.49-.92 7.795s.409 7.795.92 7.795h28.283c.51 0 .92-3.49.92-7.795s-.41-7.795-.92-7.795z"/></mask><g mask="url(#d)"><path fill="#fff" d="M79.736 40.159H49.6V55.76h30.136z"/></g><path stroke="#231815" stroke-miterlimit="10" stroke-width=".5" d="M78.815 40.159H50.533c-.511 0-.92 3.49-.92 7.795s.409 7.795.92 7.795h28.282c.512 0 .92-3.49.92-7.795s-.408-7.795-.92-7.795Z"/><path stroke="#231815" stroke-linecap="round" stroke-linejoin="round" stroke-width=".3" d="M53.076 40.159c-.511 0-.92 3.49-.92 7.795s.409 7.795.92 7.795h2.3c-.51 0-.92-3.49-.92-7.795s.41-7.795.92-7.795z"/><path stroke="#231815" stroke-miterlimit="10" stroke-width=".5" d="M0 50.361h49.651c.115 3.133.473 5.4.882 5.4h28.295c.41 0 .754-2.267.882-5.4h50.316m-.026-4.84H79.684c-.127-3.108-.472-5.362-.869-5.362H50.52c-.409 0-.754 2.254-.869 5.362H0"/><mask id="e" width="31" height="16" x="49" y="60" maskUnits="userSpaceOnUse" style="mask-type:luminance"><path fill="#fff" d="M50.52 60.08c-.511 0-.92 3.489-.92 7.794s.409 7.795.92 7.795h28.283c.51 0 .92-3.49.92-7.795s-.41-7.795-.92-7.795z"/></mask><g mask="url(#e)"><path fill="#fff" d="M79.736 60.08H49.6v15.602h30.136z"/></g><path stroke="#231815" stroke-miterlimit="10" stroke-width=".5" d="M78.815 60.08H50.533c-.511 0-.92 3.489-.92 7.794s.409 7.795.92 7.795h28.282c.512 0 .92-3.49.92-7.795s-.408-7.795-.92-7.795Z"/><path stroke="#231815" stroke-linecap="round" stroke-linejoin="round" stroke-width=".3" d="M53.076 60.08c-.511 0-.92 3.489-.92 7.794s.409 7.795.92 7.795h2.3c-.51 0-.92-3.49-.92-7.795s.41-7.795.92-7.795z"/><path stroke="#231815" stroke-miterlimit="10" stroke-width=".5" d="M0 70.281h49.651c.115 3.133.473 5.4.882 5.4h28.295c.41 0 .754-2.267.882-5.4h50.316m-.026-4.84H79.684c-.127-3.108-.472-5.362-.869-5.362H50.52c-.409 0-.754 2.255-.869 5.362H0"/></g><defs><clipPath id="a"><path fill="#fff" d="M0 0h130v76H0z"/></clipPath></defs></svg>
